X: 5714
T: Caddy's Fancy, The
R: jig
M: 6/8
K: Dmajor
|:F3 DFA|BdB AFD|FDD ADD|BAF EAG|
F3 DFA|BdB ABd|fdd faf|gec d2:|
e|:f3 dfa|AFA B2A|DFA dfe|dAF EAG|
F3 DFA|BdB ABd|fdd faf|gec d2:|
|:aAA BAG|FAA dfa|gfg afd|ef^d e2A|
d3 Bdd|AFA Bcd|fdd faf|gec d2:|

